lib/functional/office&editing/folder-simple-lock.svg

<svg xmlns="http://www.w3.org/2000/svg" fill="none" stroke="currentColor" aria-hidden="true" viewBox="0 0 32 32"><g id="Icon-FolderSimpleLock"><g clip-path="url(#clip0_12_830)"><g id="size=md (32px)"><g id="FolderSimpleLock"><path id="Vector" stroke-linecap="round" stroke-linejoin="round" stroke-width="2" d="M14 26H5C4.73478 26 4.48043 25.8946 4.29289 25.7071C4.10536 25.5196 4 25.2652 4 25V8C4 7.73478 4.10536 7.48043 4.29289 7.29289C4.48043 7.10536 4.73478 7 5 7H11.6625C11.8787 7.00089 12.089 7.07098 12.2625 7.2L15.7375 9.8C15.911 9.92902 16.1213 9.99911 16.3375 10H27C27.2652 10 27.5196 10.1054 27.7071 10.2929C27.8946 10.4804 28 10.7348 28 11V13"/><path id="Vector_2" stroke-linecap="round" stroke-linejoin="round" stroke-width="2" d="M28 20.5H19V26H28V20.5Z"/><path id="Vector_3" stroke-linecap="round" stroke-linejoin="round" stroke-width="2" d="M21 20.5V19C21 18.337 21.2634 17.7011 21.7322 17.2322C22.2011 16.7634 22.837 16.5 23.5 16.5C24.163 16.5 24.7989 16.7634 25.2678 17.2322C25.7366 17.7011 26 18.337 26 19V20.5"/></g></g></g></g><defs><clipPath id="clip0_12_830"><rect width="32" height="32" fill="white" rx="5"/></clipPath></defs></svg>

<svg xmlns="http://www.w3.org/2000/svg" fill="none" stroke="currentColor" aria-hidden="true" viewBox="0 0 32 32"><g stroke="#101828" stroke-linecap="round" stroke-linejoin="round" stroke-width="2" clip-path="url(#a)"><path d="M14 26H5a1 1 0 0 1-1-1V8a1 1 0 0 1 1-1h6.662c.217 0 .427.071.6.2l3.476 2.6c.173.129.383.2.6.2H27a1 1 0 0 1 1 1v2"/><path d="M28 20.5h-9V26h9v-5.5Zm-7 0V19a2.5 2.5 0 0 1 5 0v1.5"/></g><defs><clipPath id="a"><rect width="32" height="32" fill="#fff" rx="5"/></clipPath></defs></svg>
